source/odoo/odoo_svg.svg

<?xml version="1.0" encoding="UTF-8"?>
<!-- Generator: Adobe Illustrator 15.0.0, SVG Export Plug-In . SVG Version: 6.00 Build 0)  -->
<!DOCTYPE svg PUBLIC "-//W3C//DTD SVG 1.1//EN" "http://www.w3.org/Graphics/SVG/1.1/DTD/svg11.dtd">
<svg version="1.1" id="Layer_1" xmlns="http://www.w3.org/2000/svg" xmlns:xlink="http://www.w3.org/1999/xlink" x="0px" y="0px" width="800px" height="600px" viewBox="0 0 800 600" enable-background="new 0 0 800 600" xml:space="preserve">
<g>
	<path fill="#A24689" d="M166.205,250.621c10.126,0,19.689,2.016,28.683,6.046c8.992,4.031,16.898,9.458,23.721,16.279   c6.821,6.822,12.248,14.782,16.279,23.876c4.031,9.1,6.046,18.813,6.046,29.147c0,10.34-1.967,20.001-5.891,28.993   c-3.93,8.992-9.254,16.899-15.97,23.721c-6.72,6.821-14.627,12.199-23.721,16.124c-9.099,3.93-18.915,5.892-29.458,5.892   c-10.339,0-20.053-1.86-29.147-5.581c-9.099-3.722-17.054-8.939-23.876-15.659c-6.821-6.716-12.199-14.622-16.124-23.722   c-3.929-9.094-5.892-19.017-5.892-29.768c0-10.334,1.909-20,5.736-28.992c3.823-8.992,9.147-16.846,15.97-23.565   c6.821-6.716,14.83-12.094,24.031-16.124C145.788,253.257,155.662,251.037,166.205,250.621z M165.895,281.318   c-5.998,0-11.734,1.139-17.209,3.411c-5.479,2.277-10.232,5.427-14.264,9.458c-4.031,4.03-7.238,8.735-9.612,14.108   c-2.379,5.378-3.566,11.27-3.566,17.674c0,5.998,1.188,11.735,3.566,17.21c2.374,5.479,5.581,10.286,9.612,14.419   c4.031,4.137,8.784,7.393,14.264,9.767c5.475,2.379,11.211,3.566,17.209,3.566c5.993,0,11.73-1.188,17.21-3.566   c5.475-2.374,10.232-5.63,14.264-9.767c4.031-4.133,7.233-8.939,9.612-14.419c2.374-5.475,3.565-11.212,3.565-17.21   c-0.62-12.194-4.961-22.48-13.022-30.853c-8.063-8.372-18.504-12.97-31.318-13.799H165.895z"/>
	<path fill="#8F8F8F" d="M382.019,202.869c3.513-0.204,6.821,1.191,9.923,4.186c3.101,2.999,4.65,6.255,4.65,9.768V325.66   c0,10.131-2.068,19.743-6.201,28.837c-4.138,9.1-9.719,17.055-16.744,23.876c-7.03,6.822-15.039,12.249-24.031,16.279   c-8.992,4.031-18.45,6.047-28.372,6.047c-10.131,0-19.743-1.962-28.838-5.892c-9.099-3.925-17.054-9.303-23.876-16.124   c-6.821-6.821-12.248-14.777-16.279-23.876c-4.031-9.094-6.046-18.809-6.046-29.147c0-11.163,1.807-20.979,5.426-29.458   c3.614-8.474,9.041-16.434,16.279-23.876v0.311c7.646-7.233,16.071-12.714,25.271-16.435c9.196-3.721,18.653-5.581,28.372-5.581   c5.785,0,12.66,0.93,20.62,2.791c7.956,1.86,15.863,5.479,23.722,10.853v-45.892c0-2.064,0.411-4.031,1.24-5.892   c0.823-1.86,1.909-3.566,3.256-5.116c1.342-1.551,2.945-2.738,4.806-3.566c1.86-0.823,3.722-1.134,5.582-0.93H382.019z    M365.895,325.66c0-5.581-1.192-11.057-3.566-16.435c-2.379-5.373-5.635-10.179-9.768-14.418   c-4.138-4.235-8.891-7.598-14.264-10.078c-5.378-2.48-11.061-3.721-17.054-3.721c-5.998,0-11.734,1.191-17.21,3.565   c-5.479,2.379-10.232,5.582-14.264,9.613c-4.03,4.03-7.238,8.788-9.612,14.263c-2.379,5.48-3.565,11.217-3.565,17.21   c0,6.201,1.187,11.991,3.565,17.364c2.374,5.378,5.582,10.078,9.612,14.108c4.031,4.031,8.784,7.238,14.264,9.612   c5.476,2.379,11.212,3.566,17.21,3.566c5.993,0,11.676-1.188,17.054-3.566c5.373-2.374,10.126-5.581,14.264-9.612   c4.133-4.03,7.389-8.73,9.768-14.108C364.702,337.651,365.895,331.861,365.895,325.66z"/>
	<path fill="#8F8F8F" d="M480.623,250.621c10.126,0,19.689,2.016,28.683,6.046c8.992,4.031,16.898,9.458,23.721,16.279   c6.821,6.822,12.248,14.782,16.279,23.876c4.031,9.1,6.046,18.813,6.046,29.147c0,10.34-1.967,20.001-5.891,28.993   c-3.93,8.992-9.254,16.899-15.97,23.721c-6.72,6.821-14.627,12.199-23.721,16.124c-9.099,3.93-18.915,5.892-29.458,5.892   c-10.339,0-20.053-1.86-29.147-5.581c-9.099-3.722-17.054-8.939-23.876-15.659c-6.821-6.716-12.199-14.622-16.124-23.722   c-3.929-9.094-5.892-19.017-5.892-29.768c0-10.334,1.909-20,5.736-28.992c3.823-8.992,9.147-16.846,15.97-23.565   c6.821-6.716,14.83-12.094,24.031-16.124C460.206,253.257,470.08,251.037,480.623,250.621z M480.313,281.318   c-5.998,0-11.734,1.139-17.209,3.411c-5.479,2.277-10.232,5.427-14.264,9.458c-4.031,4.03-7.238,8.735-9.612,14.108   c-2.379,5.378-3.566,11.27-3.566,17.674c0,5.998,1.188,11.735,3.566,17.21c2.374,5.479,5.581,10.286,9.612,14.419   c4.031,4.137,8.784,7.393,14.264,9.767c5.475,2.379,11.211,3.566,17.209,3.566c5.993,0,11.73-1.188,17.21-3.566   c5.475-2.374,10.232-5.63,14.264-9.767c4.031-4.133,7.233-8.939,9.612-14.419c2.374-5.475,3.565-11.212,3.565-17.21   c-0.62-12.194-4.961-22.48-13.022-30.853c-8.063-8.372-18.504-12.97-31.318-13.799H480.313z"/>
	<path fill="#8F8F8F" d="M638.142,250.621c10.126,0,19.689,2.016,28.683,6.046c8.992,4.031,16.898,9.458,23.721,16.279   c6.821,6.822,12.248,14.782,16.279,23.876c4.031,9.1,6.046,18.813,6.046,29.147c0,10.34-1.967,20.001-5.891,28.993   c-3.93,8.992-9.254,16.899-15.97,23.721c-6.72,6.821-14.627,12.199-23.721,16.124c-9.099,3.93-18.915,5.892-29.458,5.892   c-10.339,0-20.053-1.86-29.147-5.581c-9.099-3.722-17.054-8.939-23.876-15.659c-6.821-6.716-12.199-14.622-16.124-23.722   c-3.929-9.094-5.892-19.017-5.892-29.768c0-10.334,1.909-20,5.736-28.992c3.823-8.992,9.147-16.846,15.97-23.565   c6.821-6.716,14.83-12.094,24.031-16.124C617.725,253.257,627.599,251.037,638.142,250.621z M637.831,281.318   c-5.998,0-11.734,1.139-17.209,3.411c-5.479,2.277-10.232,5.427-14.264,9.458c-4.031,4.03-7.238,8.735-9.612,14.108   c-2.379,5.378-3.566,11.27-3.566,17.674c0,5.998,1.188,11.735,3.566,17.21c2.374,5.479,5.581,10.286,9.612,14.419   c4.031,4.137,8.784,7.393,14.264,9.767c5.475,2.379,11.211,3.566,17.209,3.566c5.993,0,11.73-1.188,17.21-3.566   c5.475-2.374,10.232-5.63,14.264-9.767c4.031-4.133,7.233-8.939,9.612-14.419c2.374-5.475,3.565-11.212,3.565-17.21   c-0.62-12.194-4.961-22.48-13.023-30.853c-8.062-8.372-18.503-12.97-31.317-13.799H637.831z"/>
</g>
</svg>

<?xml version="1.0" encoding="UTF-8" standalone="no"?>
<!DOCTYPE svg PUBLIC "-//W3C//DTD SVG 1.1//EN" "http://www.w3.org/Graphics/SVG/1.1/DTD/svg11.dtd">
<svg width="100%" height="100%" viewBox="0 0 630 330" version="1.1" xmlns="http://www.w3.org/2000/svg" xmlns:xlink="http://www.w3.org/1999/xlink" xml:space="preserve" xmlns:serif="http://www.serif.com/" style="fill-rule:evenodd;clip-rule:evenodd;stroke-linejoin:round;stroke-miterlimit:2;">
    <g id="ArtBoard1" transform="matrix(1,0,0,1.48042,-88.8881,-285.915)">
        <rect x="88.888" y="193.131" width="629.325" height="222.89" style="fill:none;"/>
        <g transform="matrix(1,0,0,0.675484,0.888129,135.094)">
            <path d="M166.205,250.621C176.331,250.621 185.894,252.637 194.888,256.667C203.88,260.698 211.786,266.125 218.609,272.946C225.43,279.768 230.857,287.728 234.888,296.822C238.919,305.922 240.934,315.635 240.934,325.969C240.934,336.309 238.967,345.97 235.043,354.962C231.113,363.954 225.789,371.861 219.073,378.683C212.353,385.504 204.446,390.882 195.352,394.807C186.253,398.737 176.437,400.699 165.894,400.699C155.555,400.699 145.841,398.839 136.747,395.118C127.648,391.396 119.693,386.179 112.871,379.459C106.05,372.743 100.672,364.837 96.747,355.737C92.818,346.643 90.855,336.72 90.855,325.969C90.855,315.635 92.764,305.969 96.591,296.977C100.414,287.985 105.738,280.131 112.561,273.412C119.382,266.696 127.391,261.318 136.592,257.288C145.788,253.257 155.662,251.037 166.205,250.621ZM165.895,281.318C159.897,281.318 154.161,282.457 148.686,284.729C143.207,287.006 138.454,290.156 134.422,294.187C130.391,298.217 127.184,302.922 124.81,308.295C122.431,313.673 121.244,319.565 121.244,325.969C121.244,331.967 122.432,337.704 124.81,343.179C127.184,348.658 130.391,353.465 134.422,357.598C138.453,361.735 143.206,364.991 148.686,367.365C154.161,369.744 159.897,370.931 165.895,370.931C171.888,370.931 177.625,369.743 183.105,367.365C188.58,364.991 193.337,361.735 197.369,357.598C201.4,353.465 204.602,348.659 206.981,343.179C209.355,337.704 210.546,331.967 210.546,325.969C209.926,313.775 205.585,303.489 197.524,295.116C189.461,286.744 179.02,282.146 166.206,281.317L165.895,281.317L165.895,281.318Z" style="fill:rgb(162,70,137);fill-rule:nonzero;"/>
            <path d="M382.019,202.869C385.532,202.665 388.84,204.06 391.942,207.055C395.043,210.054 396.592,213.31 396.592,216.823L396.592,325.66C396.592,335.791 394.524,345.403 390.391,354.497C386.253,363.597 380.672,371.552 373.647,378.373C366.617,385.195 358.608,390.622 349.616,394.652C340.624,398.683 331.166,400.699 321.244,400.699C311.113,400.699 301.501,398.737 292.406,394.807C283.307,390.882 275.352,385.504 268.53,378.683C261.709,371.862 256.282,363.906 252.251,354.807C248.22,345.713 246.205,335.998 246.205,325.66C246.205,314.497 248.012,304.681 251.631,296.202C255.245,287.728 260.672,279.768 267.91,272.326L267.91,272.637C275.556,265.404 283.981,259.923 293.181,256.202C302.377,252.481 311.834,250.621 321.553,250.621C327.338,250.621 334.213,251.551 342.173,253.412C350.129,255.272 358.036,258.891 365.895,264.265L365.895,218.373C365.895,216.309 366.306,214.342 367.135,212.481C367.958,210.621 369.044,208.915 370.391,207.365C371.733,205.814 373.336,204.627 375.197,203.799C377.057,202.976 378.919,202.665 380.779,202.869L382.019,202.869ZM365.895,325.66C365.895,320.079 364.703,314.603 362.329,309.225C359.95,303.852 356.694,299.046 352.561,294.807C348.423,290.572 343.67,287.209 338.297,284.729C332.919,282.249 327.236,281.008 321.243,281.008C315.245,281.008 309.509,282.199 304.033,284.573C298.554,286.952 293.801,290.155 289.769,294.186C285.739,298.216 282.531,302.974 280.157,308.449C277.778,313.929 276.592,319.666 276.592,325.659C276.592,331.86 277.779,337.65 280.157,343.023C282.531,348.401 285.739,353.101 289.769,357.131C293.8,361.162 298.553,364.369 304.033,366.743C309.509,369.122 315.245,370.309 321.243,370.309C327.236,370.309 332.919,369.121 338.297,366.743C343.67,364.369 348.423,361.162 352.561,357.131C356.694,353.101 359.95,348.401 362.329,343.023C364.702,337.651 365.895,331.861 365.895,325.66Z" style="fill:rgb(143,143,143);fill-rule:nonzero;"/>
            <path d="M480.623,250.621C490.749,250.621 500.312,252.637 509.306,256.667C518.298,260.698 526.204,266.125 533.027,272.946C539.848,279.768 545.275,287.728 549.306,296.822C553.337,305.922 555.352,315.635 555.352,325.969C555.352,336.309 553.385,345.97 549.461,354.962C545.531,363.954 540.207,371.861 533.491,378.683C526.771,385.504 518.864,390.882 509.77,394.807C500.671,398.737 490.855,400.699 480.312,400.699C469.973,400.699 460.259,398.839 451.165,395.118C442.066,391.396 434.111,386.179 427.289,379.459C420.468,372.743 415.09,364.837 411.165,355.737C407.236,346.643 405.273,336.72 405.273,325.969C405.273,315.635 407.182,305.969 411.009,296.977C414.832,287.985 420.156,280.131 426.979,273.412C433.8,266.696 441.809,261.318 451.01,257.288C460.206,253.257 470.08,251.037 480.623,250.621ZM480.313,281.318C474.315,281.318 468.579,282.457 463.104,284.729C457.625,287.006 452.872,290.156 448.84,294.187C444.809,298.217 441.602,302.922 439.228,308.295C436.849,313.673 435.662,319.565 435.662,325.969C435.662,331.967 436.85,337.704 439.228,343.179C441.602,348.658 444.809,353.465 448.84,357.598C452.871,361.735 457.624,364.991 463.104,367.365C468.579,369.744 474.315,370.931 480.313,370.931C486.306,370.931 492.043,369.743 497.523,367.365C502.998,364.991 507.755,361.735 511.787,357.598C515.818,353.465 519.02,348.659 521.399,343.179C523.773,337.704 524.964,331.967 524.964,325.969C524.344,313.775 520.003,303.489 511.942,295.116C503.879,286.744 493.438,282.146 480.624,281.317L480.313,281.317L480.313,281.318Z" style="fill:rgb(143,143,143);fill-rule:nonzero;"/>
            <path d="M638.142,250.621C648.268,250.621 657.831,252.637 666.825,256.667C675.817,260.698 683.723,266.125 690.546,272.946C697.367,279.768 702.794,287.728 706.825,296.822C710.856,305.922 712.871,315.635 712.871,325.969C712.871,336.309 710.904,345.97 706.98,354.962C703.05,363.954 697.726,371.861 691.01,378.683C684.29,385.504 676.383,390.882 667.289,394.807C658.19,398.737 648.374,400.699 637.831,400.699C627.492,400.699 617.778,398.839 608.684,395.118C599.585,391.396 591.63,386.179 584.808,379.459C577.987,372.743 572.609,364.837 568.684,355.737C564.755,346.643 562.792,336.72 562.792,325.969C562.792,315.635 564.701,305.969 568.528,296.977C572.351,287.985 577.675,280.131 584.498,273.412C591.319,266.696 599.328,261.318 608.529,257.288C617.725,253.257 627.599,251.037 638.142,250.621ZM637.831,281.318C631.833,281.318 626.097,282.457 620.622,284.729C615.143,287.006 610.39,290.156 606.358,294.187C602.327,298.217 599.12,302.922 596.746,308.295C594.367,313.673 593.18,319.565 593.18,325.969C593.18,331.967 594.368,337.704 596.746,343.179C599.12,348.658 602.327,353.465 606.358,357.598C610.389,361.735 615.142,364.991 620.622,367.365C626.097,369.744 631.833,370.931 637.831,370.931C643.824,370.931 649.561,369.743 655.041,367.365C660.516,364.991 665.273,361.735 669.305,357.598C673.336,353.465 676.538,348.659 678.917,343.179C681.291,337.704 682.482,331.967 682.482,325.969C681.862,313.775 677.521,303.489 669.459,295.116C661.397,286.744 650.956,282.146 638.142,281.317L637.831,281.317L637.831,281.318Z" style="fill:rgb(143,143,143);fill-rule:nonzero;"/>
        </g>
    </g>
</svg>
